Sources/FrostedUI/Resources/Icons.xcassets/apps32.imageset/apps-32.svg

<svg width="32" height="32" viewBox="0 0 32 32" fill="none" xmlns="http://www.w3.org/2000/svg" data-fui-icon="true">
  <path
    d="M15.9998 1C16.414 1 16.7498 1.33579 16.7498 1.75V5.04785C19.7095 5.41692 21.9998 7.94028 21.9998 11C21.9998 12.8053 21.2009 14.4225 19.9392 15.5225L23.1609 23.2734C23.575 22.9678 23.9469 22.6515 24.2771 22.334C25.101 21.5418 25.6767 20.7495 26.0447 20.1582C26.2283 19.8632 26.3594 19.6196 26.4431 19.4531C26.4849 19.37 26.5152 19.3057 26.5339 19.2646C26.5432 19.2444 26.5497 19.2294 26.5535 19.2207C26.5545 19.2182 26.5558 19.2163 26.5564 19.2148V19.2139C26.7146 18.8313 27.1533 18.6488 27.5359 18.8066C27.9185 18.9648 28.101 19.4035 27.9431 19.7861L27.2498 19.5C27.8776 19.7596 27.9367 19.7844 27.9421 19.7871V19.7881L27.9412 19.791C27.9405 19.7927 27.9392 19.7946 27.9382 19.7969C27.9361 19.802 27.933 19.8091 27.9294 19.8174C27.9222 19.8342 27.9123 19.8578 27.8992 19.8867C27.8729 19.9445 27.8339 20.0256 27.783 20.127C27.681 20.3296 27.5282 20.6137 27.3181 20.9512C26.8985 21.6254 26.248 22.521 25.3171 23.416C24.8634 23.8523 24.3429 24.2861 23.7527 24.6953L25.9421 29.9619C26.1011 30.3443 25.9202 30.7833 25.5378 30.9424C25.1555 31.1012 24.7164 30.9204 24.5574 30.5381L22.4539 25.4805C20.7689 26.3676 18.6424 27 15.9998 27C13.3562 27 11.229 26.3681 9.5437 25.4805L7.44214 30.5381C7.28306 30.9204 6.84408 31.1014 6.46167 30.9424C6.07949 30.7832 5.89847 30.3442 6.05737 29.9619L8.24585 24.6953C7.65599 24.2863 7.13589 23.8521 6.68237 23.416C5.75148 22.521 5.101 21.6254 4.6814 20.9512C4.47136 20.6137 4.31848 20.3296 4.21655 20.127C4.16559 20.0256 4.12666 19.9445 4.10034 19.8867C4.08719 19.8578 4.07735 19.8342 4.07007 19.8174C4.06649 19.8091 4.06346 19.802 4.06128 19.7969C4.06029 19.7946 4.05904 19.7927 4.05835 19.791L4.05737 19.7881V19.7871C4.06172 19.7849 4.1152 19.7624 4.74976 19.5L4.0564 19.7861C3.89854 19.4035 4.08113 18.9649 4.46362 18.8066C4.84628 18.6487 5.28489 18.8313 5.44312 19.2139L5.44214 19.2148C5.44277 19.2163 5.44485 19.218 5.44604 19.2207C5.44981 19.2294 5.45635 19.2444 5.46558 19.2646C5.48426 19.3057 5.51458 19.37 5.5564 19.4531C5.64011 19.6195 5.77123 19.8632 5.95483 20.1582C6.32281 20.7495 6.89851 21.5418 7.72241 22.334C8.05228 22.6511 8.42402 22.9671 8.83765 23.2725L12.0593 15.5225C10.798 14.4225 9.99976 12.805 9.99976 11C9.99976 7.94041 12.2902 5.41709 15.2498 5.04785V1.75C15.2498 1.33585 15.5856 1.00011 15.9998 1ZM18.6677 16.373C17.8639 16.7729 16.9585 17 15.9998 17C15.0406 17 14.1349 16.7733 13.3308 16.373L10.1218 24.0898C11.6287 24.9076 13.5588 25.5 15.9998 25.5C18.4398 25.5 20.3691 24.9071 21.8757 24.0898L18.6677 16.373ZM15.9998 6.5C13.5146 6.50011 11.4998 8.51478 11.4998 11C11.4998 13.4852 13.5146 15.4999 15.9998 15.5C18.485 15.5 20.4998 13.4853 20.4998 11C20.4998 8.51472 18.485 6.5 15.9998 6.5Z"
    fill="currentColor"
  />
</svg>

<svg xmlns="http://www.w3.org/2000/svg" width="32" height="32" fill="none" data-fui-icon="true" viewBox="0 0 32 32"><path fill="currentColor" d="M16 1a.75.75 0 0 1 .75.75v3.298A6 6 0 0 1 22 11a5.98 5.98 0 0 1-2.06 4.523l3.22 7.75a11 11 0 0 0 1.117-.939c.824-.792 1.4-1.584 1.768-2.176a9 9 0 0 0 .489-.893l.02-.044.002-.006v-.001a.75.75 0 0 1 1.387.572l-.693-.286.692.287v.004l-.004.006-.009.02-.03.07a10.516 10.516 0 0 1-.581 1.064c-.42.674-1.07 1.57-2 2.465-.455.436-.975.87-1.565 1.28l2.19 5.266a.75.75 0 0 1-1.386.576l-2.103-5.058C20.769 26.369 18.642 27 16 27c-2.644 0-4.771-.632-6.456-1.52l-2.102 5.058a.75.75 0 0 1-1.385-.576l2.189-5.267c-.59-.409-1.11-.843-1.564-1.279a13 13 0 0 1-2-2.465 11 11 0 0 1-.582-1.064l-.03-.07-.009-.02-.003-.006v-.003c.004-.003.057-.026.692-.288l-.694.286a.75.75 0 0 1 1.387-.572l.003.007.02.044q.028.062.09.188c.084.166.215.41.399.705a11.264 11.264 0 0 0 2.883 3.114l3.221-7.75a6 6 0 0 1 3.19-10.475V1.75A.75.75 0 0 1 16 1m2.668 15.373c-.804.4-1.71.627-2.668.627-.96 0-1.865-.227-2.67-.627l-3.208 7.717c1.507.818 3.437 1.41 5.878 1.41 2.44 0 4.37-.593 5.876-1.41zM16 6.5a4.5 4.5 0 1 0 0 9 4.5 4.5 0 0 0 0-9"/></svg>
